X:1
T:Title
%%score { ( 1 3 ) | ( 2 4 ) }
L:1/8
Q:1/4=100
M:4/4
K:Ab
V:1 treble nm="Grand Piano"
V:3 treble 
V:2 bass 
V:4 bass 
V:1
 [CE]2 [Ec]>[DB] [CA]2 [EG]2 | [DF]2 [Fd]>[Fc] [FB]2 [FA]2 | %2
w: John~R.~Sweney * * * *||
 [EG]2 [Ge]>[Ge] [Ge]>[Gd] [B,DF]>[B,DG] | [A,CA]>c B>A G>F E2 | [CE]2 [Ec]>[DB] [CA]2 [EG]2 | %5
w: |||
 [DF]2 [Fd]>[Fc] [FB]2 [FA]2 | [EG]2 [Ge]>[Ge] [Ge]>[Gd] [DF]>[DG] | [CA]2 [Ec]2 [CA]4 | %8
w: |||
 [=DB]2 [DB]2 [A=d]3 [DAc] | [Ac]2 [GB]2 [EG]4 | [GB]>[FA] [FA]>[EG] F2 _G2 | %11
w: |||
 G>[Ac] [GB]>[_G=A] [=GB]4 | [=DAB]2 [DAB]2 [A=d]3 [DAc] | [Ac]2 [GB]2 [Ge]4 | %14
w: |||
 [F=d]>[Ac] [GB]>[FA] [EG]>[EB] [=DA]>[DF] | E8 | [CE]2 [Ec]>[DB] [CA]2 [EG]2 | %17
w: |||
 [DF]2 [Fd]>[Fc] [FB]2 [FA]2 | [EG]2 [Ge]>[Ge] [Ge]>[Gd] [B,DF]>[B,DG] | [A,CA]>c B>A G>F E2 | %20
w: |||
 [CE]2 [Ec]>[DB] [CA]2 [EG]2 | [DF]2 [Fd]>[Fc] [FB]2 [FA]2 | [EG]2 [Ge]>[Ge] [Ge]>[Gd] [DF]>[DG] | %23
w: |||
[M:8/4] [CA]2 [Ec]2 [CA]4 z8 |] %24
w: |
V:2
 [A,,A,]2 [A,,A,]>[A,,E,] [A,,E,]2 [C,A,]2 | [D,A,]2 [B,,B,]>[C,A,] [D,A,]2 [=D,A,]2 | %2
 [E,B,]2 [E,B,]>[E,B,] [E,B,]>[E,B,] E,>E, | A,,>C B,>A, G,>F, E,2 | %4
 [A,,A,]2 [A,,A,]>[A,,E,] [A,,E,]2 [C,A,]2 | [D,A,]2 [B,,A,]>[C,A,] [D,A,]2 [=D,A,]2 | %6
 [E,B,]2 [E,B,]>[E,B,] [E,B,]>[E,B,] [E,B,]2 | [A,,A,]2 [A,,A,]2 [A,,A,]4 | %8
 [B,,F,]2 [B,,F,]2 [B,,B,]3 B,, | [E,E]2 [E,E]2 [E,B,]4 | %10
 [B,,B,]>[B,,B,] [B,,B,]>[B,,B,] [B,,B,]4 | [E,B,E]>[E,E] [E,E]>[E,E] [E,E]4 | %12
 B,,2 B,,2 [B,,B,]3 B,, | [E,E]2 [E,E]2 [E,B,]4 | %14
 [B,,B,]>[B,,B,] [B,,B,]>[B,,B,] [B,,B,]>[B,,G,] [B,,F,]>[B,,A,] | [G,B,]2 z2 z4 | %16
 [A,,A,]2 [A,,A,]>[A,,E,] [A,,E,]2 [C,A,]2 | [D,A,]2 [B,,B,]>[C,A,] [D,A,]2 [=D,A,]2 | %18
 [E,B,]2 [E,B,]>[E,B,] [E,B,]>[E,B,] E,>E, | A,,>C B,>A, G,>F, E,2 | %20
 [A,,A,]2 [A,,A,]>[A,,E,] [A,,E,]2 [C,A,]2 | [D,A,]2 [B,,A,]>[C,A,] [D,A,]2 [=D,A,]2 | %22
 [E,B,]2 [E,B,]>[E,B,] [E,B,]>[E,B,] [E,B,]2 |[M:8/4] [A,,A,]2 [A,,A,]2 [A,,A,]4 z8 |] %24
V:3
 x8 | x8 | x8 | x8 | x8 | x8 | x8 | x8 | x8 | x8 | z4 D4 | x8 | x8 | x8 | x8 | z2 C2 D4 | x8 | x8 | %18
 x8 | x8 | x8 | x8 | x8 |[M:8/4] x16 |] %24
V:4
 x8 | x8 | x8 | x8 | x8 | x8 | x8 | x8 | x8 | x8 | x8 | x8 | x8 | x8 | x8 | E,2- [E,-A,]2 [E,B,]4 | %16
 x8 | x8 | x8 | x8 | x8 | x8 | x8 |[M:8/4] x16 |] %24

